fs/apps_list_detail_20_filled.svg

<svg viewBox="0 0 20 20" fill="none" xmlns="http://www.w3.org/2000/svg" height="1em" width="1em">
  <path d="M3.5 4C2.67157 4 2 4.67157 2 5.5V7.5C2 8.32843 2.67157 9 3.5 9H5.5C6.32843 9 7 8.32843 7 7.5V5.5C7 4.67157 6.32843 4 5.5 4H3.5ZM9.5 5C9.22386 5 9 5.22386 9 5.5C9 5.77614 9.22386 6 9.5 6H17.5C17.7761 6 18 5.77614 18 5.5C18 5.22386 17.7761 5 17.5 5H9.5ZM9.5 7C9.22386 7 9 7.22386 9 7.5C9 7.77614 9.22386 8 9.5 8H15.5C15.7761 8 16 7.77614 16 7.5C16 7.22386 15.7761 7 15.5 7H9.5ZM3.5 11C2.67157 11 2 11.6716 2 12.5V14.5C2 15.3284 2.67157 16 3.5 16H5.5C6.32843 16 7 15.3284 7 14.5V12.5C7 11.6716 6.32843 11 5.5 11H3.5ZM9.5 12C9.22386 12 9 12.2239 9 12.5C9 12.7761 9.22386 13 9.5 13H17.5C17.7761 13 18 12.7761 18 12.5C18 12.2239 17.7761 12 17.5 12H9.5ZM9.5 14C9.22386 14 9 14.2239 9 14.5C9 14.7761 9.22386 15 9.5 15H15.5C15.7761 15 16 14.7761 16 14.5C16 14.2239 15.7761 14 15.5 14H9.5Z" fill="#212121"/>
</svg>

<svg viewBox="0 0 20 20" fill="none" xmlns="http://www.w3.org/2000/svg" height="1em" width="1em">
  <path d="M3.5 4A1.5 1.5 0 0 0 2 5.5v2A1.5 1.5 0 0 0 3.5 9h2A1.5 1.5 0 0 0 7 7.5v-2A1.5 1.5 0 0 0 5.5 4h-2Zm6 1a.5.5 0 0 0 0 1h8a.5.5 0 0 0 0-1h-8Zm0 2a.5.5 0 0 0 0 1h6a.5.5 0 0 0 0-1h-6Zm-6 4A1.5 1.5 0 0 0 2 12.5v2A1.5 1.5 0 0 0 3.5 16h2A1.5 1.5 0 0 0 7 14.5v-2A1.5 1.5 0 0 0 5.5 11h-2Zm6 1a.5.5 0 0 0 0 1h8a.5.5 0 0 0 0-1h-8Zm0 2a.5.5 0 0 0 0 1h6a.5.5 0 0 0 0-1h-6Z" fill="#212121"/>
</svg>
